icon/fa/baht-sign.svg

<svg xmlns="http://www.w3.org/2000/svg" viewBox="0 0 320 512"><!--! Font Awesome Free 6.1.2 by @fontawesome - https://fontawesome.com License - https://fontawesome.com/license/free (Icons: CC BY 4.0, Fonts: SIL OFL 1.1, Code: MIT License) Copyright 2022 Fonticons, Inc.--><path d="M176 32v32c61.9 0 112 50.1 112 112 0 24.2-7.7 46.6-20.7 64.9 31.6 19.8 52.7 55 52.7 95.1 0 61.9-50.1 112-112 112h-32v32c0 17.7-14.3 32-32 32s-32-14.3-32-32v-32H41.74C18.69 448 0 429.3 0 406.3V101.6C0 80.82 16.82 64 37.57 64H112V32c0-17.67 14.3-32 32-32s32 14.33 32 32zm-64 96H64v96h48v-96zm112 48c0-26.5-21.5-48-48-48v96c26.5 0 48-21.5 48-48zM112 288H64v96h48v-96zm96 96c26.5 0 48-21.5 48-48s-21.5-48-48-48h-32v96h32z"/></svg>

<svg xmlns="http://www.w3.org/2000/svg" viewBox="0 0 320 512" height="1em" width="1em">
<!--! Font Awesome Free 6.1.2 by @fontawesome - https://fontawesome.com License - https://fontawesome.com/license/free (Icons: CC BY 4.0, Fonts: SIL OFL 1.1, Code: MIT License) Copyright 2022 Fonticons, Inc.-->
  <path d="M176 32V64C237.9 64 288 114.1 288 176C288 200.2 280.3 222.6 267.3 240.9C298.9 260.7 320 295.9 320 336C320 397.9 269.9 448 208 448H176V480C176 497.7 161.7 512 144 512C126.3 512 112 497.7 112 480V448H41.74C18.69 448 0 429.3 0 406.3V101.6C0 80.82 16.82 64 37.57 64H112V32C112 14.33 126.3 0 144 0C161.7 0 176 14.33 176 32V32zM112 128H64V224H112V128zM224 176C224 149.5 202.5 128 176 128V224C202.5 224 224 202.5 224 176zM112 288H64V384H112V288zM208 384C234.5 384 256 362.5 256 336C256 309.5 234.5 288 208 288H176V384H208z"/>
</svg>
